!!!COA:	Josquin des Prez
!!!CDT:	~1450-1521/08/27
!!!OTL:	Inviolata integra et casta es
!!!AGN:	Motet
!!!SCT:	NJE 24.5
!!!SCA:	New Josquin Edition 24.5
!!!voices:	12
**kern	**kern	**kern	**kern	**kern	**kern	**kern	**kern	**kern	**kern	**kern	**kern
*staff12	*staff11	*staff10	*staff9	*staff8	*staff7	*staff6	*staff5	*staff4	*staff3	*staff2	*staff1
*Ivox	*Ivox	*Ivox	*Ivox	*Ivox	*Ivox	*Ivox	*Ivox	*Ivox	*Ivox	*Ivox	*Ivox
*I"Bassus tertius	*I"Bassus2	*I"Bassus1	*I"Tenor2	*I"Tenor1	*I"Altus3	*I"Altus2	*I"Altus1	*I"Cantus2	*I"Cantus1	*I"Discantus2	*I"Discantus1
*I'B3	*I'B2	*I'B1	*I'T2	*I'T1	*I'A3	*I'A2	*I'A1	*I'C2	*I'C1	*I'D2	*I'D1
*clefF4	*clefF4	*clefF4	*clefGv2	*clefGv2	*clefGv2	*clefGv2	*clefGv2	*clefG2	*clefG2	*clefG2	*clefG2
*k[]	*k[]	*k[]	*k[]	*k[]	*k[]	*k[]	*k[]	*k[]	*k[]	*k[]	*k[]
*M3/1	*M3/1	*M3/1	*M3/1	*M3/1	*M3/1	*M3/1	*M3/1	*M3/1	*M3/1	*M3/1	*M3/1
*met(O)	*met(O)	*met(O)	*met(O)	*met(O)	*met(O)	*met(O)	*met(O)	*met(O)	*met(O)	*met(O)	*met(O)
=1-	=1-	=1-	=1-	=1-	=1-	=1-	=1-	=1-	=1-	=1-	=1-
0.r	0.r	0.r	0.r	0.r	0.r	0.r	0.r	2.c/	1.g	0.r	1cc
.	.	.	.	.	.	.	.	4d/	.	.	.
.	.	.	.	.	.	.	.	2e/	.	.	2cc\
.	.	.	.	.	.	.	.	2f/	2a/	.	2cc\
.	.	.	.	.	.	.	.	2d/	1b	.	1dd
.	.	.	.	.	.	.	.	2g/	.	.	.
=2	=2	=2	=2	=2	=2	=2	=2	=2	=2	=2	=2
0.r	0.r	0.r	0.r	0.r	0.r	0.r	0.r	2.c/	2cc\	0.r	1ee
.	.	.	.	.	.	.	.	.	2.ee\	.	.
.	.	.	.	.	.	.	.	4d/	.	.	.
.	.	.	.	.	.	.	.	2e/	.	.	1r
.	.	.	.	.	.	.	.	.	4dd\	.	.
.	.	.	.	.	.	.	.	2f/	1cc	.	.
.	.	.	.	.	.	.	.	1d	.	.	1ff
.	.	.	.	.	.	.	.	.	2b\	.	.
=3	=3	=3	=3	=3	=3	=3	=3	=3	=3	=3	=3
0.r	0.r	0.r	0.r	0.r	0.r	0.r	0.r	2c/	1cc	0.r	1ee
.	.	.	.	.	.	.	.	4r	.	.	.
.	.	.	.	.	.	.	.	2cc\	.	.	.
.	.	.	.	.	.	.	.	.	2r	.	1dd
.	.	.	.	.	.	.	.	8b/L	.	.	.
.	.	.	.	.	.	.	.	8a/J	.	.	.
.	.	.	.	.	.	.	.	2b\	2g/	.	.
.	.	.	.	.	.	.	.	2cc\	2.e/	.	1ee
.	.	.	.	.	.	.	.	4r	.	.	.
.	.	.	.	.	.	.	.	[4c/	4f/	.	.
=4	=4	=4	=4	=4	=4	=4	=4	=4	=4	=4	=4
0.r	0.r	0.r	0.r	0.r	0.r	0.r	0.r	4c/]	2g/	0.r	1dd
.	.	.	.	.	.	.	.	8B/L	.	.	.
.	.	.	.	.	.	.	.	8A/J	.	.	.
.	.	.	.	.	.	.	.	2B/	2g/	.	.
.	.	.	.	.	.	.	.	2c/	1a	.	1cc
.	.	.	.	.	.	.	.	4r	.	.	.
.	.	.	.	.	.	.	.	2cc\	.	.	.
.	.	.	.	.	.	.	.	.	2.g/	.	1dd
.	.	.	.	.	.	.	.	8b/L	.	.	.
.	.	.	.	.	.	.	.	8a/J	.	.	.
.	.	.	.	.	.	.	.	2b\	.	.	.
.	.	.	.	.	.	.	.	.	4f/	.	.
=5	=5	=5	=5	=5	=5	=5	=5	=5	=5	=5	=5
0.r	0.r	0.r	0.r	0.r	0.r	0.r	0.r	2cc\	2e/	0.r	2ee\
.	.	.	.	.	.	.	.	4r	2d/	.	1ff
.	.	.	.	.	.	.	.	2a/	.	.	.
.	.	.	.	.	.	.	.	.	2f/	.	.
.	.	.	.	.	.	.	.	8g/L	.	.	.
.	.	.	.	.	.	.	.	8f/J	.	.	.
.	.	.	.	.	.	.	.	2e/	2g/	.	1ee
.	.	.	.	.	.	.	.	1f	1a	.	.
.	.	.	.	.	.	.	.	.	.	.	2dd\
=6	=6	=6	=6	=6	=6	=6	=6	=6	=6	=6	=6
0.r	0.r	0.r	0.r	0.r	0.r	0.r	0.r	2e/	2.g/	0.r	1ee
.	.	.	.	.	.	.	.	2c/	.	.	.
.	.	.	.	.	.	.	.	.	2cc\	.	.
.	.	.	.	.	.	.	.	1d	.	.	1r
.	.	.	.	.	.	.	.	.	8b/L	.	.
.	.	.	.	.	.	.	.	.	8a/J	.	.
.	.	.	.	.	.	.	.	.	2b\	.	.
.	.	.	.	.	.	.	.	2c/	2cc\	.	1cc
.	.	.	.	.	.	.	.	[2f/	[2a/	.	.
=7	=7	=7	=7	=7	=7	=7	=7	=7	=7	=7	=7
0.r	0.r	0.r	0.r	0.r	0.r	0.r	0.r	4f/]	4a/]	0.r	1cc
.	.	.	.	.	.	.	.	4g/	4g/	.	.
.	.	.	.	.	.	.	.	4a/	2f/	.	.
.	.	.	.	.	.	.	.	4b\	.	.	.
.	.	.	.	.	.	.	.	2cc\	2e/	.	1ee
.	.	.	.	.	.	.	.	4r	4r	.	.
.	.	.	.	.	.	.	.	4cc\	2c/	.	.
.	.	.	.	.	.	.	.	2dd\	.	.	1ff
.	.	.	.	.	.	.	.	.	8B/L	.	.
.	.	.	.	.	.	.	.	.	8A/J	.	.
.	.	.	.	.	.	.	.	2dd\	2B/	.	.
=8	=8	=8	=8	=8	=8	=8	=8	=8	=8	=8	=8
0.r	0.r	0.r	0.r	0.r	0.r	0.r	0.r	2cc\	2c/	0.r	1ee
.	.	.	.	.	.	.	.	4r	4r	.	.
.	.	.	.	.	.	.	.	4c/	2cc\	.	.
.	.	.	.	.	.	.	.	2d/	.	.	1r
.	.	.	.	.	.	.	.	.	8b/L	.	.
.	.	.	.	.	.	.	.	.	8a/J	.	.
.	.	.	.	.	.	.	.	2d/	2b\	.	.
.	.	.	.	.	.	.	.	2c/	2cc\	.	1ee
.	.	.	.	.	.	.	.	4r	4r	.	.
.	.	.	.	.	.	.	.	4e/	[4c/	.	.
=9	=9	=9	=9	=9	=9	=9	=9	=9	=9	=9	=9
0.r	0.r	0.r	0.r	0.r	0.r	0.r	0.r	2f/	4c/]	0.r	1dd
.	.	.	.	.	.	.	.	.	8B/L	.	.
.	.	.	.	.	.	.	.	.	8A/J	.	.
.	.	.	.	.	.	.	.	2g/	2B/	.	.
.	.	.	.	.	.	.	.	2e/	2c/	.	1cc
.	.	.	.	.	.	.	.	4r	4r	.	.
.	.	.	.	.	.	.	.	4e/	2cc\	.	.
.	.	.	.	.	.	.	.	2f/	.	.	2r
.	.	.	.	.	.	.	.	.	8b/L	.	.
.	.	.	.	.	.	.	.	.	8a/J	.	.
.	.	.	.	.	.	.	.	2g/	2b\	.	2dd\
=10	=10	=10	=10	=10	=10	=10	=10	=10	=10	=10	=10
0.r	0.r	0.r	0.r	0.r	0.r	0.r	0.r	2c/	2cc\	0.r	2ee\
.	.	.	.	.	.	.	.	1d	2.a/	.	2.ff\
.	.	.	.	.	.	.	.	.	8g/L	.	4ee\
.	.	.	.	.	.	.	.	.	8f/J	.	.
.	.	.	.	.	.	.	.	2c/	2e/	.	1ee
.	.	.	.	.	.	.	.	2A/	1f	.	.
.	.	.	.	.	.	.	.	2B/	.	.	2dd\
=11	=11	=11	=11	=11	=11	=11	=11	=11	=11	=11	=11
0.r	0.r	0.r	1C	0.r	0.r	[0.g	1e	1c	1e	2.g/	1ee
.	.	.	.	.	.	.	.	.	.	4a/	.
.	.	.	2.G/	.	.	.	1d	1r	1r	2b\	1r
.	.	.	.	.	.	.	.	.	.	2b\	.
.	.	.	4F/	.	.	.	.	.	.	.	.
.	.	.	2E/	.	.	.	1c	1r	1r	1cc	1r
.	.	.	2C/	.	.	.	.	.	.	.	.
=12	=12	=12	=12	=12	=12	=12	=12	=12	=12	=12	=12
0.r	0.r	0.r	2.G/	0.r	0.r	1g]	1d	0.r	0.r	1b	0.r
.	.	.	4F/	.	.	.	.	.	.	.	.
.	.	.	2E/	.	.	1g	1c	.	.	1ee	.
.	.	.	2C/	.	.	.	.	.	.	.	.
.	.	.	2.G/	.	.	2g\	1d	.	.	4dd\	.
.	.	.	.	.	.	.	.	.	.	4cc\	.
.	.	.	.	.	.	[2g\	.	.	.	4b\	.
.	.	.	4F/	.	.	.	.	.	.	4a/	.
=13	=13	=13	=13	=13	=13	=13	=13	=13	=13	=13	=13
0.r	0.r	0.r	2E/	0.r	0.r	2g\]	1e	0.r	0.r	2g/	0.r
.	.	.	2C/	.	.	4f\	.	.	.	2cc\	.
.	.	.	.	.	.	4e\	.	.	.	.	.
.	.	.	1G	.	.	1d	1r	.	.	2cc\	.
.	.	.	.	.	.	.	.	.	.	2b\	.
.	.	.	2C/	.	.	1c	1g	.	.	1cc	.
.	.	.	4r	.	.	.	.	.	.	.	.
.	.	.	4c\	.	.	.	.	.	.	.	.
=14	=14	=14	=14	=14	=14	=14	=14	=14	=14	=14	=14
0.r	0.r	0.r	4B\	0.r	0.r	2r	1f	0.r	0.r	0.r	0.r
.	.	.	4A/	.	.	.	.	.	.	.	.
.	.	.	2B\	.	.	2d\	.	.	.	.	.
.	.	.	1c	.	.	4e\	2e\	.	.	.	.
.	.	.	.	.	.	4f\	.	.	.	.	.
.	.	.	.	.	.	4g\	1e	.	.	.	.
.	.	.	.	.	.	4e\	.	.	.	.	.
.	.	.	2r	.	.	1a	.	.	.	.	.
.	.	.	2F/	.	.	.	2d\	.	.	.	.
=15	=15	=15	=15	=15	=15	=15	=15	=15	=15	=15	=15
0.r	0.r	0.r	2E/	0.r	0.r	1g	2.e\	0.r	0.r	1ee	0.r
.	.	.	2C/	.	.	.	.	.	.	.	.
.	.	.	.	.	.	.	8d\L	.	.	.	.
.	.	.	.	.	.	.	8c\J	.	.	.	.
.	.	.	2G/	.	.	2r	1B	.	.	1dd	.
.	.	.	2B\	.	.	2g\	.	.	.	.	.
.	.	.	1A	.	.	2e\	1c	.	.	1cc	.
.	.	.	.	.	.	2c\	.	.	.	.	.
=16	=16	=16	=16	=16	=16	=16	=16	=16	=16	=16	=16
0.r	0.r	0.r	1G	0.r	0.r	2.g\	1B	0.r	0.r	1dd	0.r
.	.	.	.	.	.	4f\	.	.	.	.	.
.	.	.	1c	.	.	2e\	1e	.	.	1cc	.
.	.	.	.	.	.	2c\	.	.	.	.	.
.	.	.	1G	.	.	2.g\	4d\	.	.	1dd	.
.	.	.	.	.	.	.	4c\	.	.	.	.
.	.	.	.	.	.	.	4B\	.	.	.	.
.	.	.	.	.	.	4f\	4A/	.	.	.	.
=17	=17	=17	=17	=17	=17	=17	=17	=17	=17	=17	=17
0.r	0.r	0.r	2r	0.r	0.r	2e\	2G/	0.r	0.r	1ee	0.r
.	.	.	2A/	.	.	2c\	1c	.	.	.	.
.	.	.	2.G/	.	.	1g	.	.	.	1r	.
.	.	.	.	.	.	.	2B\	.	.	.	.
.	.	.	4F/	.	.	.	.	.	.	.	.
.	.	.	2E/	.	.	2r	1c	.	.	1gg	.
.	.	.	2C/	.	.	2e\	.	.	.	.	.
=18	=18	=18	=18	=18	=18	=18	=18	=18	=18	=18	=18
0.r	0.r	0.r	1D	0.r	0.r	4f\	2r	0.r	0.r	1ff	0.r
.	.	.	.	.	.	4g\	.	.	.	.	.
.	.	.	.	.	.	4a\	2d\	.	.	.	.
.	.	.	.	.	.	4f\	.	.	.	.	.
.	.	.	2C/	.	.	2g\	4e\	.	.	2ee\	.
.	.	.	.	.	.	.	4f\	.	.	.	.
.	.	.	1c	.	.	2c\	4g\	.	.	1ee	.
.	.	.	.	.	.	.	4a\	.	.	.	.
.	.	.	.	.	.	1d	1f	.	.	.	.
.	.	.	2B\	.	.	.	.	.	.	2dd\	.
=19	=19	=19	=19	=19	=19	=19	=19	=19	=19	=19	=19
1.C	1G	1.c	1c	0.r	1c	1c	1e	0.r	0.r	1ee	0.r
.	2E\	.	1r	.	1c	1r	1r	.	.	1r	.
2F\	2F\	2A\	.	.	.	.	.	.	.	.	.
2E\	2G\	2G\	1r	.	1e	1r	1r	.	.	1r	.
2C/	2A\	[2c\	.	.	.	.	.	.	.	.	.
=20	=20	=20	=20	=20	=20	=20	=20	=20	=20	=20	=20
1D	1F	2c\]	0.r	0.r	1f	0.r	0.r	0.r	0.r	0.r	0.r
.	.	2B\	.	.	.	.	.	.	.	.	.
1C	1G	1.c	.	.	2e\	.	.	.	.	.	.
.	.	.	.	.	1e	.	.	.	.	.	.
2r	1C	.	.	.	.	.	.	.	.	.	.
2C/	.	4B\	.	.	4d\	.	.	.	.	.	.
.	.	4A\	.	.	4c\	.	.	.	.	.	.
=21	=21	=21	=21	=21	=21	=21	=21	=21	=21	=21	=21
1GG	2G\	4B\	0.r	0.r	2d\	0.r	0.r	0.r	0.r	0.r	0.r
.	.	4A\	.	.	.	.	.	.	.	.	.
.	2D\	4G\	.	.	2d\	.	.	.	.	.	.
.	.	4F\	.	.	.	.	.	.	.	.	.
2C/	4E\	1G	.	.	1c	.	.	.	.	.	.
.	4F\	.	.	.	.	.	.	.	.	.	.
2E\	1G	.	.	.	.	.	.	.	.	.	.
1D	.	1A	.	.	1d	.	.	.	.	.	.
.	2F\	.	.	.	.	.	.	.	.	.	.
=22	=22	=22	=22	=22	=22	=22	=22	=22	=22	=22	=22
1GG	0G	2.G\	0.r	0.r	1d	0.r	0.r	0.r	0.r	0.r	0.r
.	.	4A\	.	.	.	.	.	.	.	.	.
2r	.	4B\	.	.	1e	.	.	.	.	.	.
.	.	4G\	.	.	.	.	.	.	.	.	.
2C/	.	1c	.	.	.	.	.	.	.	.	.
1GG	1r	.	.	.	1d	.	.	.	.	.	.
.	.	2B\	.	.	.	.	.	.	.	.	.
=23	=23	=23	=23	=23	=23	=23	=23	=23	=23	=23	=23
2.G\	1.C	1c	0.r	0.r	2c\	0.r	0.r	0.r	0.r	0.r	0.r
.	.	.	.	.	2.g\	.	.	.	.	.	.
4F\	.	.	.	.	.	.	.	.	.	.	.
4E\	.	2r	.	.	.	.	.	.	.	.	.
4D\	.	.	.	.	4f\	.	.	.	.	.	.
2C/	2E\	2c\	.	.	2e\	.	.	.	.	.	.
1D	1F	2.A\	.	.	4d\	.	.	.	.	.	.
.	.	.	.	.	4e\	.	.	.	.	.	.
.	.	.	.	.	4f\	.	.	.	.	.	.
.	.	4B\	.	.	4d\	.	.	.	.	.	.
=24	=24	=24	=24	=24	=24	=24	=24	=24	=24	=24	=24
1C	2E\	2c\	0.r	0.r	2e\	0.r	0.r	0.r	0.r	0.r	0.r
.	1E	4B\	.	.	4d\	.	.	.	.	.	.
.	.	4A\	.	.	4c\	.	.	.	.	.	.
2r	.	1G	.	.	2B\	.	.	.	.	.	.
2C/	4D\	.	.	.	1c	.	.	.	.	.	.
.	4C/	.	.	.	.	.	.	.	.	.	.
1GG	1D	2r	.	.	.	.	.	.	.	.	.
.	.	2G\	.	.	2B\	.	.	.	.	.	.
=25	=25	=25	=25	=25	=25	=25	=25	=25	=25	=25	=25
2.G\	1C	2.E\	0.r	0.r	2.c\	0.r	0.r	0.r	0.r	0.r	0.r
4F\	.	4F\	.	.	4d\	.	.	.	.	.	.
4E\	2r	2G\	.	.	2e\	.	.	.	.	.	.
4C/	.	.	.	.	.	.	.	.	.	.	.
2D\	2.D\	1F	.	.	2d\	.	.	.	.	.	.
1BB-	.	.	.	.	1f	.	.	.	.	.	.
.	4E\	.	.	.	.	.	.	.	.	.	.
.	4F\	2B-i\	.	.	.	.	.	.	.	.	.
.	4G\	.	.	.	.	.	.	.	.	.	.
=26	=26	=26	=26	=26	=26	=26	=26	=26	=26	=26	=26
2C/	2C/	2G\	0.r	0.r	2e\	0.r	0.r	0.r	0.r	0.r	0.r
2GG/	2.G\	2.B-i\	.	.	2.d\	.	.	.	.	.	.
2BB-i/	.	.	.	.	.	.	.	.	.	.	.
.	4F\	4A\	.	.	4G/	.	.	.	.	.	.
2C/	2E\	4G\	.	.	1c	.	.	.	.	.	.
.	.	4F\	.	.	.	.	.	.	.	.	.
1GG	1D	1G	.	.	.	.	.	.	.	.	.
.	.	.	.	.	2B\	.	.	.	.	.	.
=27	=27	=27	=27	=27	=27	=27	=27	=27	=27	=27	=27
1C	0C	2E\	1G	[0.e	2c\	2c\	0.c	1.g	1cc	2.ee\	1gg
.	.	2C/	.	.	2.G/	4B\	.	.	.	.	.
.	.	.	.	.	.	4A/	.	.	.	4ff\	.
2r	.	2.E\	2E/	.	.	2G/	.	.	1.cc	2gg\	2ee\
.	.	.	.	.	4F/	.	.	.	.	.	.
2G\	.	.	2C/	.	4E/	2.c\	.	2g/	.	2cc\	2.gg\
.	.	4F\	.	.	4D/	.	.	.	.	.	.
2E\	2r	1G	2.E/	.	1C	.	.	1g	.	2r	.
.	.	.	.	.	.	4d\	.	.	.	.	4ff\
2C/	2G\	.	.	.	.	[2e\	.	.	4b\	[2gg\	4ee\
.	.	.	4F/	.	.	.	.	.	4a/	.	4dd\
=28	=28	=28	=28	=28	=28	=28	=28	=28	=28	=28	=28
2.E\	2E\	2C/	2G/	0.e]	2.G/	4e\]	1G	2cc\	1g	4gg\]	1ee
.	.	.	.	.	.	4f\	.	.	.	4ff\	.
.	2C/	2.G\	2C/	.	.	2g\	.	4b\	.	4ee\	.
4F\	.	.	.	.	4F/	.	.	4a/	.	4dd\	.
1G	2.E\	.	2r	.	4E/	1c	1g	2g/	2r	2ee\	2r
.	.	4F\	.	.	4D/	.	.	.	.	.	.
.	.	4E\	2G/	.	2E/	.	.	2c/	2.g/	2.cc\	2.ee\
.	4F\	4D\	.	.	.	.	.	.	.	.	.
2r	1G	2E\	2C/	.	1C	2r	2.e\	2e/	.	.	.
.	.	.	.	.	.	.	.	.	4f/	4b\	4dd\
2C/	.	2C/	[2G/	.	.	2G/	.	[2g/	4g/	2cc\	4ee\
.	.	.	.	.	.	.	8d\L	.	4a/	.	4ff\
.	.	.	.	.	.	.	8c\J	.	.	.	.
=29	=29	=29	=29	=29	=29	=29	=29	=29	=29	=29	=29
2GG/	2r	1G	4G/]	[0.d	2r	2d\	2B\	4g/]	1b	1.dd	1gg
.	.	.	4F/	.	.	.	.	4f/	.	.	.
4r	2GG/	.	2G/	.	2G/	4B\	2.d\	2g/	.	.	.
2G\	.	.	.	.	.	4c\	.	.	.	.	.
.	1D	2r	2r	.	1A	1.d	.	1d	1a	.	2r
4F\	.	.	.	.	.	.	8c\L	.	.	.	.
.	.	.	.	.	.	.	8B\J	.	.	.	.
4E\	.	2D\	2.d\	.	.	.	2A/	.	.	2dd\	2ff\
4F\	.	.	.	.	.	.	.	.	.	.	.
2G\	2GG/	1G	.	.	2r	.	2G/	2r	2.b\	2b\	2.dd\
.	.	.	4e\	.	.	.	.	.	.	.	.
2GG/	4r	.	2d\	.	2G/	2B\	[2d\	2g/	.	2g/	.
.	[4G\	.	.	.	.	.	.	.	4a/	.	4ee\
=30	=30	=30	=30	=30	=30	=30	=30	=30	=30	=30	=30
1D	4G\]	2r	2r	0.d]	1A	2r	4d\]	2d/	2dd\	2r	1ff
.	8F\L	.	.	.	.	.	4c\	.	.	.	.
.	8E\J	.	.	.	.	.	.	.	.	.	.
.	2F\	2D\	2.D/	.	.	2.d\	2d\	2d/	2a/	2dd\	.
1GG	2G\	1D	.	.	1G	.	2r	1g	2b\	2b\	1dd
.	.	.	4E/	.	.	4c\	.	.	.	.	.
.	4F\	.	2D/	.	.	4d\	2d\	.	2g/	2.dd\	.
.	4E\	.	.	.	.	4e\	.	.	.	.	.
1r	2D\	2r	2A/	.	1d	2f\	2A/	1f	2.a/	.	2r
.	.	.	.	.	.	.	.	.	.	4cc\	.
.	2D\	2F\	2F/	.	.	2d\	2d\	.	.	4a/	2ff\
.	.	.	.	.	.	.	.	.	8g/L	4b\	.
.	.	.	.	.	.	.	.	.	8f/J	.	.
=31	=31	=31	=31	=31	=31	=31	=31	=31	=31	=31	=31
1G	0C	2C/	1c	[0.e	2r	4g\	2G/	2r	1g	2cc\	2ee\
.	.	.	.	.	.	4f\	.	.	.	.	.
.	.	2c\	.	.	2G/	4e\	2g\	2e/	.	2.ee\	2.gg\
.	.	.	.	.	.	4d\	.	.	.	.	.
2E\	.	1G	2r	.	2c\	1c	2e\	0g	2r	.	.
.	.	.	.	.	.	.	.	.	.	4dd\	4ff\
2.G\	.	.	2c\	.	4B\	.	2c\	.	2.e/	4ee\	4ee\
.	.	.	.	.	4A/	.	.	.	.	4ff\	4dd\
.	1C	2E\	[1c	.	1G	2r	2.g\	.	.	1gg	1cc
4F\	.	.	.	.	.	.	.	.	4d/	.	.
4E\	.	[2G\	.	.	.	[2c\	.	.	4e/	.	.
4D\	.	.	.	.	.	.	4f\	.	4f/	.	.
=32	=32	=32	=32	=32	=32	=32	=32	=32	=32	=32	=32
0C	2r	4G\]	1c]	0.e]	2.E/	4c\]	4e\	1g	2g/	2r	2r
.	.	4F\	.	.	.	4d\	4d\	.	.	.	.
.	2.G\	4E\	.	.	.	2.e\	2g\	.	2c/	2ee\	2cc\
.	.	4D\	.	.	4F/	.	.	.	.	.	.
.	.	2.C/	2c\	.	1G	.	2c\	2r	1cc	2gg\	2g/
.	4F\	.	.	.	.	4d\	.	.	.	.	.
.	4E\	.	2.c\	.	.	4e\	2.e\	2g/	.	4gg\	2.cc\
.	4D\	4D\	.	.	.	4f\	.	.	.	4ff\	.
1C	1C	1E	.	.	1c	1g	.	2e/	2r	4ee\	.
.	.	.	4B\	.	.	.	4f\	.	.	4dd\	4dd\
.	.	.	4A/	.	.	.	2g\	2e/	2cc\	2cc\	4ee\
.	.	.	4G/	.	.	.	.	.	.	.	4cc\
=33	=33	=33	=33	=33	=33	=33	=33	=33	=33	=33	=33
1D	2r	2r	2.F/	[0.f	4F/	2.d\	4a\	2a/	2a/	2r	1ff
.	.	.	.	.	4G/	.	4g\	.	.	.	.
.	2.D\	2A\	.	.	4A/	.	4f\	2.a/	2.dd\	2.ff\	.
.	.	.	4G/	.	4B-i\	4e\	4e\	.	.	.	.
2D\	.	1F	2A/	.	2A/	1f	1d	.	.	.	2r
.	4E\	.	.	.	.	.	.	4g/	4cc\	4ee\	.
2.D\	4F\	.	2B-i\	.	2D/	.	.	4f/	2dd\	4dd\	2.ff\
.	4G\	.	.	.	.	.	.	4e/	.	4cc\	.
.	1F	2r	2A/	.	1d	1d	2r	1f	2a/	2dd\	.
4C/	.	.	.	.	.	.	.	.	.	.	4ee\
4BB-i/	.	[2D\	2D/	.	.	.	[2f\	.	2r	[2b-i\	4dd\
4AA/	.	.	.	.	.	.	.	.	.	.	4cc\
=34	=34	=34	=34	=34	=34	=34	=34	=34	=34	=34	=34
1BB-i	2r	4D\]	1d	0.f]	1B-i	2r	4f\]	2r	1.dd	4b-\]	2dd\
.	.	4C/	.	.	.	.	4e\	.	.	4cc\	.
.	2F\	4D\	.	.	.	2.f\	4d\	2.d/	.	4dd\	1b-i
.	.	4E\	.	.	.	.	4c\	.	.	4ee\	.
2r	1D	1F	1.B-i	.	2r	.	1d	.	.	2ff\	.
.	.	.	.	.	.	4e\	.	4c/	.	.	.
2.BB-/	.	.	.	.	2.B-\	4d\	.	4d/	1.b-	2b-i\	2.dd\
.	.	.	.	.	.	4c\	.	4e/	.	.	.
.	2r	1D	.	.	.	1d	2r	1f	.	1dd	.
4C/	.	.	.	.	4A/	.	.	.	.	.	4ee\
4D\	2F\	.	2B-\	.	2d\	.	2d\	.	.	.	4ff\
4BB-/	.	.	.	.	.	.	.	.	.	.	4dd\
=35	=35	=35	=35	=35	=35	=35	=35	=35	=35	=35	=35
0C	2C/	2.G\	2G/	[0.e	2G/	2r	2.e\	4g/	2g/	2cc\	1ee
.	.	.	.	.	.	.	.	4f/	.	.	.
.	2.E\	.	2c\	.	2C/	2c\	.	4e/	4a/	2.gg\	.
.	.	4F\	.	.	.	.	4f\	4d/	4b\	.	.
.	.	4E\	1G	.	2G/	1c	4g\	2e/	1cc	.	2r
.	4F\	4D\	.	.	.	.	4a\	.	.	4ff\	.
.	2G\	1E	.	.	2r	.	2g\	2c/	.	4ee\	2.cc\
.	.	.	.	.	.	.	.	.	.	4dd\	.
[1AA	1A	.	1c	.	2.C/	2r	2r	1e	2r	1cc	.
.	.	.	.	.	.	.	.	.	.	.	4b\
.	.	[2C/	.	.	.	2c\	[2a\	.	[2cc\	.	4a/
.	.	.	.	.	4D/	.	.	.	.	.	4g/
=36	=36	=36	=36	=36	=36	=36	=36	=36	=36	=36	=36
1AA]	1E	4C/]	2r	0.e]	2E/	1c	4a\]	2r	4cc\]	2r	1a
.	.	4D\	.	.	.	.	4g\	.	4b\	.	.
.	.	4E\	2c\	.	2C/	.	2.e\	2c/	4cc\	1cc	.
.	.	4F\	.	.	.	.	.	.	4dd\	.	.
0C	2r	1.E	1G	.	1G	2r	.	2.g/	2.ee\	.	1g
.	.	.	.	.	.	.	4f\	.	.	.	.
.	2.G\	.	.	.	.	1c	2g\	.	.	4b\	.
.	.	.	.	.	.	.	.	4f/	4dd\	4a/	.
.	.	.	1c	.	2C/	.	1c	2.e/	4cc\	1g	2r
.	4F\	.	.	.	.	.	.	.	4b\	.	.
.	4E\	2C/	.	.	2E/	2G/	.	.	2cc\	.	[2gg\
.	8D/L	.	.	.	.	.	.	4f/	.	.	.
.	8C/J	.	.	.	.	.	.	.	.	.	.
=37	=37	=37	=37	=37	=37	=37	=37	=37	=37	=37	=37
0GG	1D	1G	2r	[0.d	2r	2.B\	2r	4g/	2b\	1r	2gg\]
.	.	.	.	.	.	.	.	4a/	.	.	.
.	.	.	2.B\	.	2D/	.	2g\	2.b\	2.dd\	.	4ff\
.	.	.	.	.	.	4c\	.	.	.	.	4ee\
.	2r	2r	.	.	2G/	1d	2g\	.	.	2r	1dd
.	.	.	4A/	.	.	.	.	4a/	4cc\	.	.
.	2.BB/	2G\	4B\	.	2D/	.	4f\	4g/	4b\	2gg\	.
.	.	.	4c\	.	.	.	4e\	4f/	4a/	.	.
1GG	.	1G	1d	.	2r	2r	2d\	1g	1b	2gg\	2r
.	4C/	.	.	.	.	.	.	.	.	.	.
.	2D\	.	.	.	2D/	[2g\	2G/	.	.	4ff\	2dd\
.	.	.	.	.	.	.	.	.	.	4ee\	.
=38	=38	=38	=38	=38	=38	=38	=38	=38	=38	=38	=38
2r	0GG	2r	2r	0.d]	2G/	2g\]	2.B\	2r	2g/	2dd\	4dd\
.	.	.	.	.	.	.	.	.	.	.	4cc\
1G	.	2G\	2.B\	.	2D/	4f\	.	1g	2.b\	2dd\	4b\
.	.	.	.	.	.	4e\	4c\	.	.	.	4a/
.	.	1G	.	.	2r	1d	1d	.	.	4dd\	1g
.	.	.	4A/	.	.	.	.	.	4a/	4cc\	.
4F\	.	.	4B\	.	2D/	.	.	2g/	4g/	4b\	.
4E\	.	.	4c\	.	.	.	.	.	4f/	4a/	.
2D\	1GG	2r	2d\	.	1G	1r	2G/	1g	1g	2b\	1gg
2G\	.	2D\	2G/	.	.	.	2g\	.	.	2b\	.
=39	=39	=39	=39	=39	=39	=39	=39	=39	=39	=39	=39
[0.C	2G\	2E\	1c	[0.c	2r	1.e	1g	2.e/	2r	2cc\	2ee\
.	2E\	2.G\	.	.	2.E/	.	.	.	2cc\	2gg\	2cc\
.	.	.	.	.	.	.	.	4f/	.	.	.
.	2C/	.	1G	.	.	.	2r	1g	1cc	2ee\	2.ee\
.	.	4F\	.	.	4F/	.	.	.	.	.	.
.	2.E\	4E\	.	.	2G/	2e\	2g\	.	.	2cc\	.
.	.	4D\	.	.	.	.	.	.	.	.	4ff\
.	.	2.C/	1c	.	2r	1e	1g	1c	2r	2.ee\	1gg
.	4F\	.	.	.	.	.	.	.	.	.	.
.	[2G\	.	.	.	[2E/	.	.	.	2cc\	.	.
.	.	4D\	.	.	.	.	.	.	.	4ff\	.
=40	=40	=40	=40	=40	=40	=40	=40	=40	=40	=40	=40
1C]	4G\]	1E	1G	0.c]	4E/]	2r	2r	2r	1.cc	1gg	1cc
.	4F\	.	.	.	4F/	.	.	.	.	.	.
.	4E\	.	.	.	4G/	2e\	2g\	2.c/	.	.	.
.	4D\	.	.	.	4E/	.	.	.	.	.	.
1F	1A	2r	2A/	.	2A/	2f\	2f\	.	.	1cc	2r
.	.	.	.	.	.	.	.	4d/	.	.	.
.	.	2A\	2F/	.	2c\	4e\	2c\	4e/	4b\	.	2.cc\
.	.	.	.	.	.	4d\	.	4f/	4a/	.	.
1E	2r	2E\	1c	.	1G	2c\	1e	1g	2g/	1r	.
.	.	.	.	.	.	.	.	.	.	.	4dd\
.	2G\	2G\	.	.	.	2g\	.	.	2cc\	.	2ee\
=41	=41	=41	=41	=41	=41	=41	=41	=41	=41	=41	=41
1D	2.D\	2A\	2.F/	[0.d	2r	2r	2r	2.f/	1a	2dd\	1ff
.	.	2.F\	.	.	1A	1d	1f	.	.	2.ff\	.
.	4E\	.	4E/	.	.	.	.	4g/	.	.	.
2D\	1F	.	4D/	.	.	.	.	2a/	1dd	.	2r
.	.	4G\	4C/	.	.	.	.	.	.	4ee\	.
1D	.	2A\	1F	.	2F/	2d\	2f\	2a/	.	4dd\	2ff\
.	.	.	.	.	.	.	.	.	.	4cc\	.
.	2.BB-i/	2D\	.	.	2D/	1d	1f	1b-i	2r	1ff	4ff\
.	.	.	.	.	.	.	.	.	.	.	4ee\
2D\	.	[2F\	[2D/	.	[2d\	.	.	.	[2b-i\	.	4dd\
.	4C/	.	.	.	.	.	.	.	.	.	4cc\
=42	=42	=42	=42	=42	=42	=42	=42	=42	=42	=42	=42
1BB-i	1.D	4F\]	4D/]	0.d]	4d\]	2r	1B-	2r	4b-\]	2r	1ff
.	.	4E\	4E/	.	4c\	.	.	.	4cc\	.	.
.	.	4D\	4F/	.	4B-i\	1f	.	1b-i	2.dd\	2.ff\	.
.	.	4C/	4G/	.	4A/	.	.	.	.	.	.
2BB-i/	.	2.F\	2F/	.	2B-i\	.	2.d\	.	.	.	2r
.	.	.	.	.	.	.	.	.	4cc\	4ee\	.
1BB-i	2D\	.	2D/	.	2.B-i\	2f\	.	4a/	4b-i\	4dd\	2ff\
.	.	4E\	.	.	.	.	4e\	4g/	4a/	4cc\	.
.	1D	4D\	2r	.	.	1f	2f\	2f/	1b-i	2dd\	2dd\
.	.	4C/	.	.	4A/	.	.	.	.	.	.
2BB-i/	.	2D\	2F/	.	4G/	.	2d\	2b-i\	.	2dd\	2ff\
.	.	.	.	.	4F/	.	.	.	.	.	.
=43	=43	=43	=43	=43	=43	=43	=43	=43	=43	=43	=43
1C	2r	2r	0c	[0.e	4E/	2r	2g\	2r	1g	1cc	2cc\
.	.	.	.	.	4F/	.	.	.	.	.	.
.	2G\	2.E\	.	.	4G/	2.e\	4e\	1.cc	.	.	2.gg\
.	.	.	.	.	4A/	.	4f\	.	.	.	.
2C/	1G	.	.	.	1G	.	2g\	.	2r	1g	.
.	.	4F\	.	.	.	4c\	.	.	.	.	4ff\
1C	.	4G\	.	.	.	4e\	2.c\	.	2.cc\	.	4ee\
.	.	4A\	.	.	.	4f\	.	.	.	.	4dd\
.	2E\	2G\	1c	.	2r	2g\	.	1g	.	2r	2ee\
.	.	.	.	.	.	.	4d\	.	4b\	.	.
2C/	2C/	[2E\	.	.	2G/	[2c\	4e\	.	4a/	[2cc\	2ee\
.	.	.	.	.	.	.	4f\	.	4g/	.	.
=44	=44	=44	=44	=44	=44	=44	=44	=44	=44	=44	=44
0AA	2r	2E\]	2r	0.e]	1c	4c\]	1e	2r	2.a/	4cc\]	1cc
.	.	.	.	.	.	4d\	.	.	.	4b\	.
.	2.C/	2C/	1c	.	.	4e\	.	1.cc	.	4a/	.
.	.	.	.	.	.	4f\	.	.	4b\	4g/	.
.	.	2E\	.	.	2r	1e	1c	.	1cc	2a/	2r
.	4BB/	.	.	.	.	.	.	.	.	.	.
.	2.C/	2A\	2c\	.	2.c\	.	.	.	.	2a/	2cc\
1C	.	1G	1c	.	.	1c	2r	2.g/	2r	1g	2.ee\
.	4D\	.	.	.	4B\	.	.	.	.	.	.
.	4E\	.	.	.	2G/	.	2e\	.	2cc\	.	.
.	4C/	.	.	.	.	.	.	4a/	.	.	4ff\
=45	=45	=45	=45	=45	=45	=45	=45	=45	=45	=45	=45
1GG	1.G	2r	2d\	[0.d	1d	2r	2g\	2b\	2b\	2r	2gg\
.	.	2D\	2.B\	.	.	2d\	2d\	2.b\	2dd\	2.g/	4ff\
.	.	.	.	.	.	.	.	.	.	.	4ee\
2r	.	1D	.	.	1.B	2G/	1g	.	4dd\	.	1dd
.	.	.	4c\	.	.	.	.	4a/	4cc\	4a/	.
2.GG/	4F\	.	1d	.	.	2.B\	.	4g/	4b\	4b\	.
.	4E\	.	.	.	.	.	.	4f/	4a/	4cc\	.
.	1D	1G	.	.	.	.	2r	2g/	1b	2.dd\	1g
4AA/	.	.	.	.	.	4c\	.	.	.	.	.
4BB/	.	.	2G/	.	2B\	2d\	2g\	2d/	.	.	.
4C/	.	.	.	.	.	.	.	.	.	4ee\	.
=46	=46	=46	=46	=46	=46	=46	=46	=46	=46	=46	=46
2D\	2r	2r	1d	0.d]	2A/	2A/	2f\	2r	2r	4ff\	2r
.	.	.	.	.	.	.	.	.	.	4ee\	.
1GG	2.G\	1D	.	.	2B\	2d\	2g\	1g	2g/	4dd\	2.dd\
.	.	.	.	.	.	.	.	.	.	4cc\	.
.	.	.	1r	.	2G/	2G/	1d	.	2b\	2b\	.
.	4D\	.	.	.	.	.	.	.	.	.	4ee\
2FF/	2F\	2D\	.	.	2.d\	2d\	.	2a/	2a/	2.cc\	2ff\
1GG	2D\	1D	1G	.	.	2r	2r	1g	1dd	.	2dd\
.	.	.	.	.	4c\	.	.	.	.	4b\	.
.	[2G\	.	.	.	2d\	2B\	[2g\	.	.	4b\	2gg\
.	.	.	.	.	.	.	.	.	.	4a/	.
=47	=47	=47	=47	=47	=47	=47	=47	=47	=47	=47	=47
[0.Cl	4G\]	2E\	2G/	[0.cl	[0.Gl	2G/	4g\]	[0.gl	[0.ccl	[0.ccl	[0.ee [0.ggl
.	4F\	.	.	.	.	.	4f\	.	.	.	.
.	4E\	2.C/	1.G	.	.	2.c\	2.g\	.	.	.	.
.	4D\	.	.	.	.	.	.	.	.	.	.
.	[0Cl	.	.	.	.	.	.	.	.	.	.
.	.	4D\	.	.	.	4B\	4f\	.	.	.	.
.	.	4E\	.	.	.	2c\	4e\	.	.	.	.
.	.	4F\	.	.	.	.	4d\	.	.	.	.
.	.	[1El	[1Gl	.	.	1G	2.c\	.	.	.	.
.	.	.	.	.	.	.	4d\	.	.	.	.
=48	=48	=48	=48	=48	=48	=48	=48	=48	=48	=48	=48
0.C]	0.C]	0.E]	0.G]	0.c]	0.G]	0.cl	0.el	0.g]	0.cc]	0.cc]	0.ee] 0.gg]
==	==	==	==	==	==	==	==	==	==	==	==
*-	*-	*-	*-	*-	*-	*-	*-	*-	*-	*-	*-
!!!RDF**kern: l=long note in original notation
!!!RDF**kern: i=editorial accidental
!!!RDF**kern: V=start of tuplet marker
!!!RDF**kern: Z=end of tuplet marker
!!!ENC:	Joel Chapman 2012/05/01
!!!END:	2012/05/01/
!!!EED:	Jesse Rodin
!!!EEV:	2012/06/24/
!!attribution-level@Jos: 4 (questionable)
!!!ONB:	Translated from MusicXML and edited on 2012/06/24/ by Craig Sapp
!!muse2ps: C^@{COA}?\n@{SCT}^i2I150v85,85,85,85,85,85,85,85,85,85,85,100Q16
